X: 116
T: No_74_Healing_Song_(a).krn
N: Derived from No_74_Healing_Song_(a).krn
%%abc-version 2.0
%%abcx-abcm2ps-target-version 5.9.1 (29 Sep 2008)
%%abc-creator hum2abc beta
%%abcx-conversion-date 2019/03/15 08:35:45
%%humdrum-veritas 2498983126
%%humdrum-veritas-data 901310821
%%linebreak <none>
%%barnumbers 0
L: 1/8
M: 2/4
K: G clef=bass
[K:clef=bass][M:2/4]DD D3/B,/ | 
A,3/G,/ G, z | 
A,A, A,3/B,/ ||  
[M:3/4]A,3/A,/A,4 | 
A,4z3/ A,/ ||  
[M:2/4]A,A,/A,/A,2 | 
(G,2E,2) | 
(3A,G,G,G,2 | 
G,3z | 
G,3/A,/ G,3/E,/ | 
E,3/D,/ D, z/ E,/ | 
E,E,/E,/E,2 | 
D,2D,2 | 
D,2D, z |]  



